chrome/icons/play.svg

<svg height="16" viewBox="128 61 829 902" width="16" xmlns="http://www.w3.org/2000/svg" xmlns:xlink="http://www.w3.org/1999/xlink">
  <path d="M224.5,963C211.167,963 198.667,960.5 187,955.5C175.333,950.5 165.083,943.667 156.25,935C147.417,926.333 140.5,916.167 135.5,904.5C130.5,892.833 128,880.333 128,867L128,157C128,143.667 130.5,131.167 135.5,119.5C140.5,107.833 147.333,97.6667 156,89C164.667,80.3334 174.833,73.5001 186.5,68.5C198.167,63.5001 210.667,61.0001 224,61C232,61.0001 240,62.0001 248,64C256,66.0001 263.5,69.0001 270.5,73L907.5,428C922.833,436.667 934.833,448.5 943.5,463.5C952.167,478.5 956.5,494.667 956.5,512C956.5,529.667 952.25,545.917 943.75,560.75C935.25,575.583 923.167,587.333 907.5,596L271,951C264,955 256.5,958 248.5,960C240.5,962 232.5,963 224.5,963ZM892.5,512C892.5,506.333 891,500.917 888,495.75C885,490.583 881,486.667 876,484L239.5,129C234.833,126.333 229.667,125 224,125C215.333,125 207.833,128.167 201.5,134.5C195.167,140.833 192,148.333 192,157L192,867C192,875.667 195.167,883.167 201.5,889.5C207.833,895.833 215.333,899 224,899C229.667,899 234.833,897.667 239.5,895L876,540C881,537.333 885,533.417 888,528.25C891,523.083 892.5,517.667 892.5,512Z" fill="context-fill" fill-opacity="context-fill-opacity">
  </path>
</svg>

<svg xmlns="http://www.w3.org/2000/svg" width="16" height="16" viewBox="128 61 829 902"><path fill="context-fill" fill-opacity="context-fill-opacity" d="M224.5 963q-20 0-37.5-7.5T156.25 935t-20.75-30.5T128 867V157q0-20 7.5-37.5T156 89t30.5-20.5T224 61q12 0 24 3t22.5 9l637 355q23 13 36 35.5t13 48.5q0 26.5-12.75 48.75T907.5 596L271 951q-10.5 6-22.5 9t-24 3m668-451q0-8.5-4.5-16.25T876 484L239.5 129q-7-4-15.5-4-13 0-22.5 9.5T192 157v710q0 13 9.5 22.5T224 899q8.5 0 15.5-4L876 540q7.5-4 12-11.75t4.5-16.25"/></svg>
